TileServer und Tiles/svg/8/14_0.svg

<?xml version='1.0' encoding='UTF-8' standalone='no'?>
<svg viewBox="0 0 497 279" width="497pt" height="279pt" xmlns="http://www.w3.org/2000/svg" xmlns:xlink="http://www.w3.org/1999/xlink">
 <defs overflow="visible" style="stroke:none;">
  <path id="glyph0-3" d="M 3.15625 -5.4375 C 2.703125 -5.828125 1.765625 -6.328125 1.046875 -6.640625 L 0.546875 -5.96875 C 1.296875 -5.65625 2.21875 -5.125 2.65625 -4.703125 Z M 1.734375 0.703125 C 2.359375 -0.390625 3.09375 -1.890625 3.640625 -3.140625 L 2.96875 -3.6875 C 2.359375 -2.328125 1.53125 -0.765625 0.953125 0.15625 Z M 1.1875 -9.265625 C 1.96875 -8.921875 2.890625 -8.375 3.34375 -7.953125 L 3.875 -8.65625 C 3.40625 -9.078125 2.453125 -9.59375 1.703125 -9.90625 Z M 5.25 -0.578125 L 5.25 -3.46875 L 9.90625 -3.46875 L 9.90625 -0.578125 Z M 9.90625 -7.03125 L 9.90625 -4.3125 L 5.25 -4.3125 L 5.25 -7.03125 Z M 7.265625 -7.890625 C 7.46875 -8.46875 7.6875 -9.1875 7.890625 -9.828125 L 6.875 -9.953125 C 6.78125 -9.359375 6.578125 -8.53125 6.375 -7.890625 L 4.390625 -7.890625 L 4.390625 0.90625 L 5.25 0.90625 L 5.25 0.296875 L 9.90625 0.296875 L 9.90625 0.8125 L 10.8125 0.8125 L 10.8125 -7.890625 Z M 7.265625 -7.890625 "/>
  <path id="glyph0-2" d="M 11.25 -7.34375 L 11.25 -8.203125 L 5.140625 -8.203125 C 5.359375 -8.75 5.5625 -9.28125 5.71875 -9.828125 L 4.796875 -10.046875 C 4.625 -9.4375 4.421875 -8.8125 4.15625 -8.203125 L 0.765625 -8.203125 L 0.765625 -7.34375 L 3.78125 -7.34375 C 2.96875 -5.765625 1.875 -4.28125 0.421875 -3.296875 C 0.59375 -3.109375 0.828125 -2.765625 0.953125 -2.5625 C 1.59375 -3 2.171875 -3.53125 2.6875 -4.109375 L 2.6875 -0.1875 L 3.578125 -0.1875 L 3.578125 -4.3125 L 6.125 -4.3125 L 6.125 0.9375 L 7.015625 0.9375 L 7.015625 -4.3125 L 9.703125 -4.3125 L 9.703125 -1.328125 C 9.703125 -1.15625 9.640625 -1.109375 9.4375 -1.109375 C 9.265625 -1.109375 8.5625 -1.09375 7.796875 -1.109375 C 7.921875 -0.875 8.046875 -0.546875 8.09375 -0.3125 C 9.125 -0.296875 9.75 -0.3125 10.109375 -0.453125 C 10.484375 -0.59375 10.59375 -0.84375 10.59375 -1.3125 L 10.59375 -5.15625 L 7.015625 -5.15625 L 7.015625 -6.765625 L 6.125 -6.765625 L 6.125 -5.15625 L 3.5 -5.15625 C 3.984375 -5.84375 4.40625 -6.578125 4.765625 -7.34375 Z M 11.25 -7.34375 "/>
  <path id="glyph0-1" d="M 9.765625 -6.953125 L 7.734375 -6.953125 L 7.734375 -8.765625 L 9.765625 -8.765625 Z M 6.90625 -6.953125 L 4.9375 -6.953125 L 4.9375 -8.765625 L 6.90625 -8.765625 Z M 4.109375 -6.953125 L 2.203125 -6.953125 L 2.203125 -8.765625 L 4.109375 -8.765625 Z M 10.65625 -9.53125 L 1.34375 -9.53125 L 1.34375 -6.1875 L 4.53125 -6.1875 C 3.875 -5.078125 2.515625 -3.9375 1.09375 -3.28125 C 1.265625 -3.125 1.53125 -2.796875 1.65625 -2.609375 C 2.46875 -3.015625 3.265625 -3.5625 3.953125 -4.1875 L 8.875 -4.1875 C 8.296875 -3.125 7.4375 -2.296875 6.40625 -1.640625 C 5.859375 -2.234375 5.015625 -2.96875 4.3125 -3.5 L 3.609375 -3.078125 C 4.3125 -2.546875 5.125 -1.8125 5.640625 -1.21875 C 4.265625 -0.53125 2.65625 -0.109375 0.953125 0.15625 C 1.140625 0.328125 1.375 0.71875 1.46875 0.9375 C 5.25 0.28125 8.65625 -1.234375 10.109375 -4.640625 L 9.53125 -5.015625 L 9.375 -4.984375 L 4.734375 -4.984375 C 5.015625 -5.296875 5.265625 -5.65625 5.484375 -5.984375 L 4.921875 -6.1875 L 10.65625 -6.1875 Z M 10.65625 -9.53125 "/>
  <path id="glyph0-0" d="M 1.203125 1.4375 L 10.796875 1.4375 L 10.796875 -10.5625 L 1.203125 -10.5625 Z M 6 -5.046875 L 2.1875 -9.953125 L 9.8125 -9.953125 Z M 6.390625 -4.5625 L 10.203125 -9.46875 L 10.203125 0.34375 Z M 2.1875 0.84375 L 6 -4.0625 L 9.8125 0.84375 Z M 1.796875 -9.46875 L 5.609375 -4.5625 L 1.796875 0.34375 Z M 1.796875 -9.46875 "/>
 </defs>
 <image width="497" height="279" xlink:href="svg/8/14_0.jpg"/>
 <g>
  <path style="fill:none;stroke-width:2;stroke-linecap:butt;stroke-linejoin:round;stroke:rgb(100%,100%,100%);stroke-opacity:0.6;stroke-miterlimit:10;" transform=" rotate(  340 181.738 91.4833) " d="M 173.503906 87.53125 L 171.472656 87.53125 L 171.472656 85.71875 L 173.503906 85.71875 Z M 170.644531 87.53125 L 168.675781 87.53125 L 168.675781 85.71875 L 170.644531 85.71875 Z M 167.847656 87.53125 L 165.941406 87.53125 L 165.941406 85.71875 L 167.847656 85.71875 Z M 174.394531 84.953125 L 165.082031 84.953125 L 165.082031 88.296875 L 168.269531 88.296875 C 167.613281 89.40625 166.253906 90.546875 164.832031 91.203125 C 165.003906 91.359375 165.269531 91.6875 165.394531 91.875 C 166.207031 91.46875 167.003906 90.921875 167.691406 90.296875 L 172.613281 90.296875 C 172.035156 91.359375 171.175781 92.1875 170.144531 92.84375 C 169.597656 92.25 168.753906 91.515625 168.050781 90.984375 L 167.347656 91.40625 C 168.050781 91.9375 168.863281 92.671875 169.378906 93.265625 C 168.003906 93.953125 166.394531 94.375 164.691406 94.640625 C 164.878906 94.8125 165.113281 95.203125 165.207031 95.421875 C 168.988281 94.765625 172.394531 93.25 173.847656 89.84375 L 173.269531 89.46875 L 173.113281 89.5 L 168.472656 89.5 C 168.753906 89.1875 169.003906 88.828125 169.222656 88.5 L 168.660156 88.296875 L 174.394531 88.296875 Z M 174.394531 84.953125 "/>
  <path style="fill:none;stroke-width:2;stroke-linecap:butt;stroke-linejoin:round;stroke:rgb(100%,100%,100%);stroke-opacity:0.6;stroke-miterlimit:10;" transform=" rotate(  340 181.738 91.4833) " d="M 186.988281 87.140625 L 186.988281 86.28125 L 180.878906 86.28125 C 181.097656 85.734375 181.300781 85.203125 181.457031 84.65625 L 180.535156 84.4375 C 180.363281 85.046875 180.160156 85.671875 179.894531 86.28125 L 176.503906 86.28125 L 176.503906 87.140625 L 179.519531 87.140625 C 178.707031 88.71875 177.613281 90.203125 176.160156 91.1875 C 176.332031 91.375 176.566406 91.71875 176.691406 91.921875 C 177.332031 91.484375 177.910156 90.953125 178.425781 90.375 L 178.425781 94.296875 L 179.316406 94.296875 L 179.316406 90.171875 L 181.863281 90.171875 L 181.863281 95.421875 L 182.753906 95.421875 L 182.753906 90.171875 L 185.441406 90.171875 L 185.441406 93.15625 C 185.441406 93.328125 185.378906 93.375 185.175781 93.375 C 185.003906 93.375 184.300781 93.390625 183.535156 93.375 C 183.660156 93.609375 183.785156 93.9375 183.832031 94.171875 C 184.863281 94.1875 185.488281 94.171875 185.847656 94.03125 C 186.222656 93.890625 186.332031 93.640625 186.332031 93.171875 L 186.332031 89.328125 L 182.753906 89.328125 L 182.753906 87.71875 L 181.863281 87.71875 L 181.863281 89.328125 L 179.238281 89.328125 C 179.722656 88.640625 180.144531 87.90625 180.503906 87.140625 Z M 186.988281 87.140625 "/>
  <path style="fill:none;stroke-width:2;stroke-linecap:butt;stroke-linejoin:round;stroke:rgb(100%,100%,100%);stroke-opacity:0.6;stroke-miterlimit:10;" transform=" rotate(  340 181.738 91.4833) " d="M 190.894531 89.046875 C 190.441406 88.65625 189.503906 88.15625 188.785156 87.84375 L 188.285156 88.515625 C 189.035156 88.828125 189.957031 89.359375 190.394531 89.78125 Z M 189.472656 95.1875 C 190.097656 94.09375 190.832031 92.59375 191.378906 91.34375 L 190.707031 90.796875 C 190.097656 92.15625 189.269531 93.71875 188.691406 94.640625 Z M 188.925781 85.21875 C 189.707031 85.5625 190.628906 86.109375 191.082031 86.53125 L 191.613281 85.828125 C 191.144531 85.40625 190.191406 84.890625 189.441406 84.578125 Z M 192.988281 93.90625 L 192.988281 91.015625 L 197.644531 91.015625 L 197.644531 93.90625 Z M 197.644531 87.453125 L 197.644531 90.171875 L 192.988281 90.171875 L 192.988281 87.453125 Z M 195.003906 86.59375 C 195.207031 86.015625 195.425781 85.296875 195.628906 84.65625 L 194.613281 84.53125 C 194.519531 85.125 194.316406 85.953125 194.113281 86.59375 L 192.128906 86.59375 L 192.128906 95.390625 L 192.988281 95.390625 L 192.988281 94.78125 L 197.644531 94.78125 L 197.644531 95.296875 L 198.550781 95.296875 L 198.550781 86.59375 Z M 195.003906 86.59375 "/>
  <g style="fill:rgb(30.196078%,50.196078%,70.196078%);fill-opacity:1;" transform=" rotate(  340 181.738 91.4833) ">
   <use xlink:href="#glyph0-1" y="94.483258" x="163.738101"/>
   <use xlink:href="#glyph0-2" y="94.483258" x="175.738101"/>
   <use xlink:href="#glyph0-3" y="94.483258" x="187.738101"/>
  </g>
 </g>
</svg>

<svg xmlns="http://www.w3.org/2000/svg" xmlns:xlink="http://www.w3.org/1999/xlink" viewBox="0 0 497 279"> <defs overflow="visible" style="stroke:none">  <path id="c" d="M3.2-5.4c-.5-.4-1.4-1-2.2-1.2L.5-6c.8.3 1.7 1 2.2 1.3ZM1.7.7a44 44 0 0 0 2-3.8L3-3.7c-.6 1.4-1.5 3-2 3.9Zm-.5-10A9 9 0 0 1 3.3-8l.7-.7c-.6-.3-1.5-.9-2.3-1.2Zm4 8.7v-2.9H10v3ZM10-7v2.7H5.2V-7ZM7.3-8l.6-1.9h-1L6.4-8h-2v9h.8V.3H10v.5h1v-8.7Zm0 .1"/>  <path id="b" d="M11.3-7.3v-.9H5c.4-.6.6-1 .7-1.6l-.9-.2-.6 1.8H.8v.9h3c-.8 1.5-2 3-3.4 4l.6.7L2.7-4v3.9h.9v-4.3H6V.9h1.1v-5.2h2.5v3c.1.1.1.2-.2.2H7.8l.3.8c.9 0 1.7 0 1.9-.2.5 0 .6-.3.6-.8v-3.9H7v-1.6h-.9v1.6H3.5c.5-.6 1-1.4 1.3-2.1Zm0 0"/>  <path id="a" d="M9.8-7h-2v-1.8h1.9ZM6.9-7H5v-1.8h2ZM4.1-7H2.2v-1.8h2Zm6.6-2.5H1.3v3.3h3.2c-.5 1.2-2 2.3-3.4 3 .2-.1.4.3.6.5.8-.3 1.6-.9 2.3-1.5h4.9c-.6 1-1.5 1.9-2.5 2.6a17.4 17.4 0 0 0-2-1.9l-.9.4 2.1 1.9A16 16 0 0 1 1 .2l.5.7C5.3.3 8.7-1.2 10-4.6L9.5-5H4.7l.8-1-.6-.2h5.8Zm0 0"/>  <path d="M1.2 1.4h9.6v-12H1.2ZM6-5l-3.8-5h7.6Zm.4.4 3.8-4.9V.3ZM2.2.8 6-4l3.8 5ZM1.8-9.5l3.8 5L1.8.2Zm0 0"/> </defs> <image xlink:href="svg/8/14_0.jpg" width="497" height="279"/> <path d="M173.5 87.5h-2v-1.8h2Zm-2.9 0h-2v-1.8h2.1Zm-2.8 0H166v-1.8h2Zm6.6-2.5H165v3.3h3.3c-.7 1.1-2 2.2-3.5 2.9l.6.7c.8-.4 1.6-1 2.3-1.6h5c-.7 1-1.6 1.9-2.7 2.5a17.4 17.4 0 0 0-1.9-1.8l-.8.4c.8.6 1.7 1.3 2 1.9a16 16 0 0 1-4.5 1.3l.4.8c3.8-.6 7.2-2.2 8.6-5.6l-.5-.3h-4.8l.7-1-.5-.2h5.7Zm12.6 2.1v-.8h-6.1l.6-1.6-1-.3c-.1.6-.3 1.3-.5 1.9h-3.5v.7h3c-.8 1.7-1.9 3.2-3.3 4.1l.5.9 1.7-1.6v3.9h1v-4.1h2.4v5.2h1v-5.2h2.6v3c0 .1 0 .2-.2.2h-1.7c.2.2.3.5.3.8 1 0 1.7 0 2-.2.4 0 .5-.4.5-.8v-3.9h-3.5v-1.6h-1v1.6h-2.5c.4-.7.9-1.3 1.2-2.2Zm3.9 1.9-2.1-1.2-.5.7c.7.3 1.7.9 2 1.3Zm-1.4 6.2a44 44 0 0 0 1.9-3.9l-.7-.5c-.6 1.4-1.4 3-2 3.8Zm-.6-10a9 9 0 0 1 2.2 1.3l.5-.7c-.5-.4-1.4-1-2.2-1.2ZM193 94v-3h4.7v3Zm4.7-6.5v2.7H193v-2.7Zm-2.7-1 .6-1.7-1-.3c0 .6-.3 1.5-.5 2h-2v9h.9v-.7h4.6v.5h1v-8.7Zm0 .1" style="fill:none;stroke-width:2;stroke-linecap:butt;stroke-linejoin:round;stroke:#fff;stroke-opacity:.6;stroke-miterlimit:10" transform=" rotate(  340 181.738 91.4833) "/> <g style="fill:#4d80b3;fill-opacity:1" transform=" rotate(  340 181.738 91.4833) ">  <use xlink:href="#a" x="163.7" y="94.5"/>  <use xlink:href="#b" x="175.7" y="94.5"/>  <use xlink:href="#c" x="187.7" y="94.5"/> </g></svg>
